X: 1
T: String Quartet in E\b Major opus 17 no 3 mvt 2
C: Franz Joseph Haydn
%%abc-version 2.0
%%abcx-abcm2ps-target-version 5.9.1 (29 Sep 2008)
%%abc-creator hum2abc beta
%%abcx-conversion-date 2021/02/14 14:38:25
%%abc-copyright Copyright (c) 1994, 2000 Center for Computer Assisted Research in the Humanities
%%abc-edited-by Frances Bennion
%%abcx-initial-encoding-date 1997/04/15
%%gracespace 0 6 6
%%humdrum-veritas 1622088076
%%humdrum-veritas-data 2358325912
%%linebreak <none>
%%barnumbers 0
L: 1/4
M: 3/4
N: Derived from op17n3-02.krn
Q: "Menuetto: Allegretto"
%%staves [1 2 3 4]
V: 1
V: 2
V: 3 clef=alto
V: 4 clef=bass
K: Eb
[V:1]z2 e [I:setbarnb1] |
[V:2]z2 z |
[V:3]z2 z |
[V:4]z2 z |
[V:1]e/d/ c/B/ B |
[V:2]z2 A |
[V:3]z2 F |
[V:4]z2 D |
[V:1]B2 A |
[V:2]A2 z |
[V:3]F2 z |
[V:4]D2 z |
[V:1]A/G/ F/E/ F |
[V:2]z2 E |
[V:3]z2 C |
[V:4]z2 =A, |
[V:1]F2 A |
[V:2]E2 F |
[V:3]C2 B, |
[V:4]=A,2 D, |
[V:1]A/G/ F/E/ [EG,] |
[V:2]E2 G, |
[V:3]B,2 B, |
[V:4]E,2 E,, |
[V:1][E2G,2] A |
[V:2]G,2 z |
[V:3]B,2 z |
[V:4]E,,2 z |
[V:1]A/G/ F/E/ c |
[V:2]z2 G |
[V:3]z2 E |
[V:4]z2 E |
[V:1]c g/e/ d/=B/ |
[V:2]G2 A |
[V:3]E2 F/D/ |
[V:4]E2 F |
[V:1]c g/e/ d/=B/ |
[V:2]G2 A |
[V:3]E2 F/D/ |
[V:4]E2 F |
[V:1]c c d |
[V:2]G3- |
[V:3]E3- |
[V:4]E2 D |
[V:1]e3- |
[V:2]G2 _G |
[V:3]E3 |
[V:4]C _C B, |
[V:1]e d c |
[V:2]F3- |
[V:3]C D E |
[V:4]=A,3 |
[V:1]B f/d/ c/=A/ |
[V:2]F z E |
[V:3]D z =A,/C/ |
[V:4]B, z F, |
[V:1]B f/d/ c/=A/ |
[V:2]D z E |
[V:3]B, z =A,/C/ |
[V:4]B,, z F, |
[V:1]B B, B, |
[V:2]D D D |
[V:3]B, F, F, |
[V:4]B,, B,, B,, |
[V:1]B,2 b |
[V:2]D2 z |
[V:3]F,2 z |
[V:4]B,,2 z |
[V:1]b/a/ g/f/ f |
[V:2]z2 e |
[V:3]z3 |
[V:4]z3 |
[V:1]f2 a |
[V:2]e/d/ c/B/ B |
[V:3]z2 d |
[V:4]z3 |
[V:1]a/g/ f/e/ e |
[V:2]c z E |
[V:3]e z e |
[V:4]z2 C |
[V:1]e2 _d |
[V:2]E2 E |
[V:3]e/_d/ c/B/ B |
[V:4]C/B,/ A,/G,/ G, |
[V:1]_d/c/ B/A/ c |
[V:2]E2 D |
[V:3]A3 |
[V:4]A,2 F, |
[V:1]c/B/ A/G/ B |
[V:2]D2 C |
[V:3]G3 |
[V:4]G,2 =E, |
[V:1]B/A/ G/F/ F |
[V:2]C A, B, |
[V:3]F F, G, |
[V:4]F,2 G, |
[V:1]F c/A/ G/=E/ |
[V:2]C2 _D |
[V:3]A,2 B,/G,/ |
[V:4]A,2 B, |
[V:1]F c/A/ G/=E/ |
[V:2]C2 _D |
[V:3]A,2 B,/G,/ |
[V:4]A,2 B, |
[V:1]F F G |
[V:2]C3- |
[V:3]A,3- |
[V:4]A,2 G, |
[V:1]A3- |
[V:2]C2 _C |
[V:3]A,3 |
[V:4]F, _F, E, |
[V:1]A G F |
[V:2]B,3- |
[V:3]F, G, A, |
[V:4]D,3 |
[V:1]E B/G/ F/D/ |
[V:2]B, z A, |
[V:3]G, z D,/F,/ |
[V:4]E, z B, |
[V:1]E B/G/ F/D/ |
[V:2]G, z A, |
[V:3]E, z D,/F,/ |
[V:4]E, z B,, |
[V:1]E E E |
[V:2]G, G, G, |
[V:3]E, [E,B,] [E,B,] |
[V:4]E,, E,, E,, |
[V:1]E2 e' |
[V:2]G,2 z |
[V:3][B,2E,2] z |
[V:4]E,,2 z |
[V:1]e'/d'/ c'/b/ b |
[V:2]z2 a |
[V:3]z2 F |
[V:4]z2 D |
[V:1]b2 a' |
[V:2]a2 z |
[V:3]F2 z |
[V:4]D2 z |
[V:1]a'/g'/ f'/e'/ e' |
[V:2]z2 g |
[V:3]z2 B |
[V:4]z2 E |
[V:1]e' z G/B/ |
[V:2]g z2 |
[V:3]B z2 |
[V:4]E z2 |
[V:1]c/B/ A/B/ F/B/ |
[V:2]z2 f |
[V:3]z2 B,- |
[V:4]z2 F, |
[V:1]G/B/ E/B/ D/B/ |
[V:2]g e d |
[V:3]B,3- |
[V:4]G, E, D, |
[V:1]B,/B/ D/B/ F/B/ |
[V:2]B2 f |
[V:3]B,3- |
[V:4]B,,2 F, |
[V:1]G/B/ E/B/ D/B/ |
[V:2]g e d |
[V:3]B,3- |
[V:4]G, E, D, |
[V:1]B,/B/ D/B/ F/B/ |
[V:2]B2 f |
[V:3]B,3- |
[V:4]B,,2 D, |
[V:1]G/B/ E/B/ G/B/ |
[V:2]g e g |
[V:3]B,3- |
[V:4]E, G, E, |
[V:1]A/B/ F/B/ E/B/ |
[V:2]a f e |
[V:3]B,3 |
[V:4]F, D, C, |
[V:1]D/a/ f/d/ B/A/ |
[V:2]d f A |
[V:3]B, D F |
[V:4]B,,2 D, |
[V:1]G/B/ E/G/ B,/A,/ |
[V:2]G E D |
[V:3]E G, F, |
[V:4]E, G, B, |
[V:1]G, z G/B/ |
[V:2]E z2 |
[V:3]G, z2 |
[V:4]E, E,, z |
[V:1]c/B/ A/B/ G/_d/ |
[V:2]z2 _d |
[V:3]z2 E |
[V:4]z2 G, |
[V:1]c/e/ A/e/ c/e/ |
[V:2]c e c |
[V:3]E3- |
[V:4]A, C A, |
[V:1]B/e/ G/e/ B/e/ |
[V:2]B e B |
[V:3]E3 |
[V:4]G, E, G, |
[V:1]A/c/ F/A/ G/E/ |
[V:2]A F G |
[V:3]C D E |
[V:4]F, D, E, |
[V:1]D/F/ B,/A/ G/E/ |
[V:2]F A G |
[V:3]D F E |
[V:4]B,, B,, B,, |
[V:1]D/F/ B,/A/ G/E/ |
[V:2]F A G |
[V:3]D F E |
[V:4]B,, B,, B,, |
[V:1]D/F/ G/E/ =A/E/ |
[V:2]F G =A |
[V:3]D E C |
[V:4]B,, B,, B,, |
[V:1]D/F/ =A/B/ G/B/ |
[V:2]B z2 |
[V:3]B, z2 |
[V:4]B,, z2 |
[V:1]c/B/ A/B/ F/B/ |
[V:2]z2 f |
[V:3]z2 B,- |
[V:4]z2 F, |
[V:1]G/B/ E/B/ D/B/ |
[V:2]g e d |
[V:3]B,3- |
[V:4]G, E, D, |
[V:1]B,/B/ D/B/ F/B/ |
[V:2]B2 f |
[V:3]B,3- |
[V:4]B,,2 F, |
[V:1]G/B/ E/B/ D/B/ |
[V:2]g e d |
[V:3]B,3- |
[V:4]G, E, D, |
[V:1]B,/B/ D/B/ F/B/ |
[V:2]B2 f |
[V:3]B,3- |
[V:4]B,,2 D, |
[V:1]G/B/ E/B/ G/B/ |
[V:2]g e g |
[V:3]B,3- |
[V:4]E, G, E, |
[V:1]A/B/ F/B/ E/B/ |
[V:2]a f e |
[V:3]B,3 |
[V:4]F, D, C, |
[V:1]D/a/ f/d/ B/A/ |
[V:2]d f A |
[V:3]B, D F |
[V:4]B,,2 D, |
[V:1]G/B/ E/G/ B,/A,/ |
[V:2]G E D |
[V:3]E G, F, |
[V:4]E, G, B, |
[V:1]G, z2 |]
[V:2]E z2 |]
[V:3]G, z2 |]
[V:4]E, E,, z |]

